!!!COM: Robert Schumann
!!!CNT: Deutsch
!!!TXO: Deutsch
!!!OTL: Wanderung
!!!LYR: Kerner
!!!OPR: Zwo2lf Gedichte
!!!OPS: Op.35
!!!ONM: No. 7
!!!ENC: Ben Fuhrman
!!!YOR: Schumann Lieder - Max Friedlaender, ed.,
!!!YOR: New York: C. F. Peters, Vol. 2
!!!ODT: 1840/
!!NB: Vocal melody and text only encoded.
!!NB: First instance of melodic material only encoded.
**kern	**silbe
*clefG2	*
*k[b-e-a-d-]	*
*M6/8	*
!!created: 06/30/06 10:40
!!proofed and posted: 06/30/06 10:40
!!edit time: 40 minutes
=2	=2
4r	.
8r	.
8r	.
8r	.
{8e-	{wohl-
=3	=3
4a-	auf
8b-	und
(8.cc	frisch
16b-)	|
8a-	ge-
=4	=4
4.b-	-wan-
4b-	-dert
8b-	ins
=5	=5
4cc	un-
8dd-	-be-
4b-	-kann-
(16b-	-te
16cc)	|
=6	=6
4.a-}	Land!}
8r	.
8r	.
{8cc	{Zer-
=7	=7
4cc	-ris-
8b-	-sen,
4a-	ach,
8g	zer-
=8	=8
(4f	-ris-
8g)	|
4a-	-sen
8cc	ist
=9	=9
4b-	man-
8e-	-ches
4g	teu-
8f	-re
=10	=10
2.e-}	Band.}
!! rest to measure 12
=12	=12
4r	.
8r	.
8r	.
8r	.
{8b-	{Ihr
=13	=13
4b-	hei-
8a-	-mat-
4g	-li-
8f	-chen
=14	=14
(4e-	Kreu-
8f)	|
4g	-ze,
8a-	wo
=15	=15
4b-	ich
8cc	oft
4dd-	be-
8cc	-tend
=16	=16
[4.dd-	lag,
4dd-]	|
8dd-	ihr
=17	=17
4dd-	Ba2u-
8cc-	-me,
4b-	ach,
8a-	ihr
=18	=18
(4g-	Hu2-
8a-)	|
4b-	-gel,
8cc-	o
=19	=19
4dd-	blickt
8dd-	mir
4ccn	seg-
8gn	-nend
=20	=20
(4.cc	nach!
4b-)	|
8e-	Noch
=21	=21
4a-	schla2ft
8b-	die
(8.cc	wei-
16b-)	|
8a-	-te
=22	=22
4.b-	Er-
4b-	-de,
8b-	kein
=23	=23
4cc	Vo-
8dd-	-gel
4b-	weckt
8cc	den
=24	=24
4.a-}	Hain,}
8r	.
8r	.
{8cc	{doch
=25	=25
4cc	bin
8b-	ich
4a-	nicht
8g	ver-
=26	=26
(4f	-las-
8g)	|
4a-	-sen,
8cc	doch
=27	=27
4b-	bin
8e-	ist
4g	nicht
8f	al-
=28	=28
[2.e-	-lein;
=29	=29
4.e-]}	|}
4r	.
8r	.
=30	=30
4r	.
8r	.
8r	.
8r	.
{8d-	{denn
=31	=31
4d-	ach!
8f	auf
(8a-	mei-
8dd-)	|
8ff	-nem
=32	=32
4.ee-	Her-
4cc}	-zen}
8r	.
=33	=33
{8d-	{trag'
8d-	ich
8f	ihr
(8a-	teu-
8dd-)	|
8ff	-res
=34	=34
(4.ee-	Pfand,
4cc)	|
8cc	ich
=35	=35
4dd-	fu2hl's
8dd-	und
4dd-	Erd'
8dd-	und
=36	=36
(4ff	Him-
8ee-)	|
4a-	-mel
8dd-	sind
=37	=37
4cc	in-
8dd-	-nig
4b-	mir
8cc	ver-
=38	=38
[4.a-	wandt,
4a-]	|
8b-	sind
=39	=39
4cc	in-
8dd-	-nig
4b-	mir
8cc	ver-
=40	=40
2.a-}	-wandt.}
==	==
*-	*-
